hoodie_driver/public/shopping.svg

<svg viewBox="0 0 31 31" fill="#2B96EA" xmlns="http://www.w3.org/2000/svg">
<path d="M1.48836 0.185791C0.769106 0.185791 0.186035 0.768862 0.186035 1.48812C0.186035 2.20737 0.769106 2.79044 1.48836 2.79044H3.80558C3.9952 2.79044 4.18001 2.85011 4.33382 2.96098C4.48764 3.07185 4.60268 3.22831 4.66263 3.4082L8.95638 16.2919C9.14706 16.8639 9.1713 17.4798 9.02506 18.0648L8.6715 19.4816C8.15273 21.5567 9.768 23.6277 11.907 23.6277H27.5349C28.2541 23.6277 28.8372 23.0446 28.8372 22.3253C28.8372 21.6061 28.2541 21.023 27.5349 21.023H11.907C11.3999 21.023 11.0743 20.6069 11.1973 20.1149L11.4639 19.05C11.5091 18.8696 11.6133 18.7094 11.7599 18.595C11.9066 18.4805 12.0872 18.4183 12.2732 18.4183H26.2325C26.7933 18.4186 27.2913 18.06 27.4687 17.5281L30.9408 7.10948C31.222 6.26585 30.5938 5.39469 29.7046 5.39509H8.72237C8.53276 5.39509 8.34795 5.33543 8.19412 5.22456C8.0403 5.11369 7.92526 4.95723 7.86529 4.77735L6.63153 1.07605C6.45407 0.544132 5.95608 0.185498 5.39534 0.185791H1.48836ZM10.6046 24.93C9.16613 24.93 7.99999 26.0961 7.99999 27.5346C7.99999 28.9731 9.16613 30.1393 10.6046 30.1393C12.0431 30.1393 13.2093 28.9731 13.2093 27.5346C13.2093 26.0961 12.0431 24.93 10.6046 24.93ZM26.2325 24.93C24.794 24.93 23.6279 26.0961 23.6279 27.5346C23.6279 28.9731 24.794 30.1393 26.2325 30.1393C27.6711 30.1393 28.8372 28.9731 28.8372 27.5346C28.8372 26.0961 27.6711 24.93 26.2325 24.93Z" fill="#2B96EA"/>
</svg>

<svg xmlns="http://www.w3.org/2000/svg" viewBox="0 0 31 31" fill="#2B96EA" xmlns:v="https://vecta.io/nano"><path d="M1.488.186C.769.186.186.769.186 1.488S.769 2.79 1.488 2.79h2.317c.19 0 .374.06.528.171s.269.267.329.447l4.294 12.884c.191.572.215 1.188.069 1.773l-.354 1.417a3.37 3.37 0 0 0 3.236 4.146h15.628c.719 0 1.302-.583 1.302-1.302s-.583-1.302-1.302-1.302H11.907a.7.7 0 0 1-.71-.908l.267-1.065c.045-.18.149-.341.296-.455s.327-.177.513-.177h13.959a1.3 1.3 0 0 0 1.236-.89l3.472-10.419c.281-.844-.347-1.715-1.236-1.714H8.722c-.19 0-.374-.06-.528-.171s-.269-.267-.329-.447L6.632 1.076C6.454.544 5.956.185 5.395.186H1.488zm9.116 24.744C9.166 24.93 8 26.096 8 27.535s1.166 2.605 2.605 2.605 2.605-1.166 2.605-2.605-1.166-2.605-2.605-2.605zm15.628 0c-1.439 0-2.605 1.166-2.605 2.605s1.166 2.605 2.605 2.605 2.605-1.166 2.605-2.605-1.166-2.605-2.605-2.605z"/></svg>
